lib/logo_tmp/nrk-logo-nrk-sami-radio.svg

<svg width="142" height="23" viewBox="0 0 142 23" fill="none" xmlns="http://www.w3.org/2000/svg">
<path d="M-4.19617e-05 18.3333V4.3346H4.59335V18.3333H-4.19617e-05ZM10.8427 6.56258L13.4844 18.3333H8.45732L5.30303 4.3346H8.1225C8.76903 4.32621 9.39637 4.55412 9.88687 4.97545C10.3782 5.37911 10.7157 5.93948 10.8427 6.56258ZM14.1744 18.3333V4.3346H18.7678V18.3333H14.1744ZM22.2372 9.65812C21.7422 9.66294 21.2552 9.53343 20.8279 9.28346C20.4064 9.03981 20.0562 8.68962 19.8126 8.26803C19.5624 7.84072 19.4328 7.35355 19.4378 6.85837C19.4321 6.3662 19.5617 5.88194 19.8126 5.4585C20.0588 5.04149 20.4086 4.69511 20.8279 4.45294C21.2553 4.20325 21.7422 4.07377 22.2372 4.07828C22.7292 4.07298 23.2133 4.20258 23.6369 4.45294C24.052 4.69723 24.3981 5.04332 24.6423 5.4585C24.8929 5.88206 25.0225 6.36624 25.0172 6.85837C25.0218 7.35352 24.8923 7.8406 24.6423 8.26803C24.4006 8.68777 24.0542 9.03766 23.6369 9.28346C23.2132 9.53431 22.7288 9.66394 22.2365 9.65812H22.2372ZM25.7269 18.3333V4.3346H30.3206V18.3333H25.7269ZM36.136 11.9846C36.1489 11.9982 36.2474 12.1592 36.4317 12.4676C36.6159 12.7761 36.8557 13.1705 37.1512 13.6507C37.4469 14.1307 37.759 14.64 38.0873 15.1787C38.4157 15.7174 38.7247 16.2268 39.0143 16.7067C39.3027 17.1867 39.6313 17.7289 40 18.3333H34.9531C34.6375 17.8207 34.3515 17.3574 34.0952 16.9433C33.8389 16.5293 33.5665 16.0823 33.2778 15.6026C32.9884 15.1233 32.7023 14.6566 32.4195 14.2027C32.1367 13.7488 31.8937 13.3512 31.6904 13.0099C31.4863 12.6684 31.3449 12.4383 31.2662 12.3198C31.0713 12.0257 30.9559 11.686 30.9314 11.334C30.9509 10.9961 31.0597 10.6695 31.2465 10.3873C31.3254 10.2559 31.47 10.0225 31.6802 9.68732C31.8905 9.35214 32.137 8.95456 32.4195 8.49451C32.7021 8.03446 32.9882 7.56454 33.2778 7.08477C33.5673 6.605 33.8398 6.15477 34.0952 5.73416C34.3519 5.31398 34.6379 4.84735 34.9531 4.33428H40L36.0962 10.7027C35.9754 10.8918 35.9073 11.1097 35.899 11.334C35.912 11.5694 35.9942 11.7957 36.1353 11.9846H36.136Z" fill="white"/>
<path d="M54.0018 11.8367C53.7121 11.5415 53.3759 11.2959 53.0065 11.1099C52.6194 10.914 52.2166 10.7507 51.8023 10.6217C51.3775 10.489 50.9396 10.3761 50.4886 10.2832C50.1431 10.2038 49.8214 10.1242 49.5232 10.0446C49.2492 9.97384 48.9826 9.87704 48.727 9.75549C48.5073 9.6514 48.303 9.51738 48.12 9.35722C47.9476 9.20543 47.8145 9.01428 47.7318 8.79999C47.6398 8.54811 47.5959 8.28118 47.6024 8.01308C47.5978 7.73559 47.6416 7.45941 47.7318 7.19698C47.8132 6.96507 47.9498 6.75649 48.1299 6.58929C48.3163 6.41884 48.5276 6.27783 48.7566 6.17112C49.019 6.05174 49.2974 5.97124 49.5829 5.93216C49.9225 5.88403 50.2651 5.86084 50.608 5.86279C50.9205 5.86324 51.2328 5.87974 51.5435 5.91224C51.8579 5.94507 52.1702 5.99504 52.4791 6.06192C52.7791 6.12678 53.0749 6.2099 53.3648 6.31084C53.6363 6.40431 53.8993 6.52078 54.151 6.65899L54.4297 4.90696C54.1467 4.75917 53.8501 4.63913 53.544 4.54852C53.2321 4.45559 52.917 4.37583 52.5985 4.30923C52.2762 4.24257 51.9506 4.19283 51.6232 4.16022C51.2914 4.12703 50.953 4.11032 50.608 4.1101C49.9041 4.10238 49.202 4.18266 48.518 4.34906C47.9355 4.48959 47.3849 4.73974 46.8958 5.08618C46.4451 5.40976 46.0824 5.84088 45.8406 6.34038C45.5831 6.90195 45.4573 7.51494 45.4726 8.13256C45.4615 8.61063 45.539 9.08663 45.7012 9.53644C45.8443 9.91332 46.0648 10.256 46.3485 10.5424C46.629 10.8227 46.9513 11.0578 47.3039 11.2394C47.6775 11.4318 48.067 11.5918 48.468 11.7176C48.8864 11.8504 49.3143 11.9632 49.7518 12.0561C50.1105 12.1356 50.4423 12.2185 50.747 12.305C51.0311 12.3832 51.3076 12.4865 51.5734 12.6137C51.8017 12.7215 52.0129 12.8624 52.2001 13.0319C52.378 13.1989 52.5173 13.4028 52.6084 13.6293C52.714 13.9021 52.7648 14.1931 52.7577 14.4855C52.763 14.7965 52.7159 15.1062 52.6184 15.4015C52.531 15.657 52.396 15.8935 52.2203 16.0985C52.0436 16.3003 51.8266 16.4629 51.5834 16.5758C51.3083 16.7023 51.0168 16.7896 50.7175 16.835C50.352 16.891 49.9826 16.9177 49.6128 16.9146C49.2534 16.9137 48.8944 16.8904 48.538 16.8449C48.166 16.7985 47.7944 16.7354 47.4233 16.6557C47.0522 16.5761 46.6905 16.4797 46.3382 16.3667C45.9867 16.2545 45.6518 16.1384 45.3333 16.0185L45.5917 17.9899C45.9311 18.1167 46.2767 18.2263 46.6271 18.3182C46.9451 18.4017 47.2674 18.4681 47.5925 18.5173C47.9039 18.5638 48.2157 18.6003 48.528 18.6268C48.8403 18.6534 49.1554 18.6666 49.4735 18.6666C50.1859 18.6711 50.8968 18.5976 51.5933 18.4476C52.21 18.3183 52.7973 18.0752 53.325 17.7307C53.8174 17.4047 54.2154 16.9549 54.4791 16.4264C54.7701 15.8005 54.91 15.115 54.8875 14.4251C54.8984 13.9111 54.8208 13.3991 54.6583 12.9114C54.5198 12.5097 54.2958 12.1433 54.0018 11.8367Z" fill="white"/>
<path d="M65.9146 17.1931C65.7692 17.2065 65.6226 17.1845 65.4874 17.1291C65.3523 17.0736 65.2325 16.9862 65.1384 16.8745C64.9538 16.5555 64.877 16.1855 64.9194 15.8194L64.9592 11.717C64.9636 11.2869 64.91 10.8582 64.8 10.4425C64.7033 10.0779 64.5415 9.73385 64.3223 9.42694C64.1009 9.12675 63.8196 8.87586 63.4962 8.69015C63.1206 8.47683 62.7144 8.32237 62.292 8.23215C61.7754 8.12051 61.248 8.06707 60.7195 8.07284C60.3003 8.07265 59.8814 8.09926 59.4655 8.15249C59.0726 8.20196 58.6835 8.27847 58.3011 8.38149C57.9465 8.47774 57.5976 8.59409 57.2561 8.72998L57.0173 10.4226C57.349 10.3031 57.6643 10.2036 57.9631 10.1239C58.2619 10.0442 58.5504 9.97787 58.8286 9.92477C59.1016 9.87258 59.3774 9.83601 59.6546 9.81524C59.9264 9.79533 60.1952 9.78538 60.4608 9.78538C60.8667 9.77683 61.2718 9.82373 61.665 9.92477C61.9519 9.99648 62.2157 10.1404 62.4313 10.3429C62.6233 10.5399 62.7605 10.7836 62.8294 11.0499C62.9143 11.3783 62.9545 11.7166 62.9488 12.0558L62.9465 12.5536L60.62 12.711C59.8242 12.7333 59.0402 12.9091 58.3111 13.2287C57.7655 13.4677 57.2944 13.8495 56.9476 14.3339C56.6534 14.765 56.4972 15.2755 56.4998 15.7975C56.496 16.2873 56.6158 16.7702 56.8481 17.2014C57.0916 17.6443 57.458 18.0074 57.903 18.2468C58.446 18.5294 59.0529 18.6666 59.6646 18.6451C60.2377 18.6583 60.8083 18.5637 61.3465 18.3663C61.812 18.1842 62.2378 17.9138 62.6005 17.5698C62.7382 17.4376 62.8689 17.2984 62.992 17.1526C63.0308 17.3588 63.1037 17.5571 63.2076 17.7394C63.3851 18.0441 63.6579 18.282 63.9839 18.4164C64.3443 18.5612 64.7301 18.6323 65.1184 18.6255C65.2379 18.6255 65.354 18.6219 65.4668 18.6152C65.5776 18.6089 65.6875 18.5922 65.7952 18.5654C65.9014 18.5389 65.9972 18.5156 66.0838 18.4957C66.1618 18.4783 66.2383 18.455 66.3127 18.426L66.5317 17.0919C66.4218 17.1297 66.3085 17.1565 66.1933 17.1718C66.1009 17.1841 66.0078 17.1906 65.9146 17.1914M62.6005 16.2953C62.3848 16.4661 62.1512 16.6129 61.9039 16.7334C61.6576 16.8532 61.3967 16.9403 61.1279 16.9926C60.849 17.0462 60.5656 17.0728 60.2816 17.0719C59.9572 17.0812 59.6347 17.0201 59.3362 16.8927C59.0933 16.7874 58.8885 16.6103 58.749 16.3853C58.6111 16.1464 58.5422 15.874 58.5499 15.5984C58.5307 15.2664 58.6217 14.9374 58.8087 14.6624C59.0254 14.4094 59.3191 14.2345 59.6447 14.1646C60.1533 14.045 60.6753 13.9916 61.1976 14.0056H62.9402L62.9313 15.9817C62.8299 16.0956 62.7189 16.2005 62.5995 16.2953" fill="white"/>
<path d="M63.8642 3.3335H61.7145L60.0226 6.89796H61.5751L63.8642 3.3335Z" fill="white"/>
<path d="M82.1757 8.49101C81.633 8.19616 81.0214 8.05178 80.4042 8.07283C79.8685 8.0714 79.3365 8.16234 78.8317 8.34166C78.3191 8.52541 77.8363 8.78374 77.3989 9.10832C77.1507 9.29196 76.9147 9.49151 76.6923 9.70571C76.4883 9.20718 76.1286 8.78804 75.6669 8.51092C75.1176 8.2146 74.4992 8.07024 73.8755 8.09274C73.3433 8.09298 72.815 8.18389 72.3133 8.36157C71.7982 8.54278 71.312 8.79766 70.8699 9.11827C70.7269 9.22149 70.5882 9.33334 70.4519 9.45016V8.09274L68.4216 8.39144V18.4476H70.4519V10.8733C70.6911 10.7166 70.9405 10.576 71.1983 10.4525C71.5141 10.3032 71.8442 10.1865 72.1836 10.104C72.4964 10.0267 72.8172 9.98655 73.1393 9.9845C73.4349 9.97564 73.7293 10.0264 74.0049 10.1338C74.233 10.2305 74.4345 10.3808 74.5924 10.5719C74.7651 10.794 74.8842 11.0529 74.9404 11.3286C75.0181 11.685 75.0549 12.0491 75.0502 12.4139V18.4476H77.0804V11.9957C77.0817 11.6148 77.056 11.2343 77.0035 10.857C77.2336 10.7057 77.4719 10.5673 77.7174 10.4425C78.0276 10.2862 78.3548 10.1659 78.6924 10.0841C79.0117 10.0059 79.339 9.96582 79.6677 9.96458C79.9602 9.95751 80.2511 10.0083 80.5239 10.1139C80.756 10.2086 80.9611 10.3591 81.1211 10.552C81.2941 10.7739 81.4134 11.0329 81.4694 11.3087C81.547 11.6651 81.5838 12.0292 81.5789 12.394V18.4476H83.6091V11.9758C83.6347 11.2227 83.513 10.4719 83.2509 9.76545C83.0444 9.23275 82.6658 8.78423 82.1757 8.49101Z" fill="white"/>
<path d="M86.6154 18.4479H88.6457V8.09308L86.6154 8.39178V18.4479Z" fill="white"/>
<path d="M88.3561 3.92094C88.1496 3.79465 87.9117 3.72909 87.6697 3.73176C87.4245 3.72987 87.1836 3.79531 86.973 3.92094C86.7655 4.04248 86.5912 4.2135 86.4658 4.41877C86.3393 4.62538 86.2737 4.8635 86.2764 5.10577C86.276 5.34886 86.3404 5.58766 86.4628 5.79763C86.5853 6.00761 86.7614 6.1812 86.973 6.30056C87.1856 6.4201 87.4258 6.48189 87.6697 6.47978C87.9104 6.48265 88.1475 6.42075 88.3561 6.30056C88.5609 6.18205 88.7296 6.00994 88.8441 5.80273C88.9635 5.59001 89.0253 5.34974 89.0232 5.10577C89.0259 4.86487 88.9641 4.62764 88.8441 4.41877C88.7257 4.21452 88.5579 4.04333 88.3561 3.92094Z" fill="white"/>
<path d="M100.607 8.22219C100.235 8.32201 99.8792 8.47634 99.5521 8.6802C99.2125 8.8922 98.8986 9.14278 98.6166 9.42694C98.5694 9.47407 98.524 9.52651 98.4772 9.57596V8.09276L96.4469 8.39145V18.4476H98.4772V10.9244C98.6315 10.8182 98.7871 10.7186 98.945 10.6317C99.1442 10.5219 99.3504 10.4255 99.5623 10.3429C99.7678 10.2633 99.9767 10.1936 100.189 10.1339C100.407 10.0731 100.63 10.0298 100.856 10.0044C101.097 9.97794 101.34 9.97128 101.582 9.98451L101.821 8.11267C101.413 8.08335 101.003 8.12033 100.607 8.22219Z" fill="white"/>
<path d="M112.033 17.1931C111.887 17.2065 111.741 17.1845 111.605 17.1291C111.47 17.0736 111.35 16.9862 111.256 16.8745C111.072 16.5555 110.995 16.1855 111.037 15.8194L111.077 11.717C111.082 11.2869 111.028 10.8582 110.918 10.4425C110.821 10.0779 110.659 9.73385 110.44 9.42694C110.219 9.12675 109.938 8.87586 109.614 8.69015C109.239 8.47683 108.832 8.32237 108.41 8.23215C107.893 8.12051 107.366 8.06707 106.838 8.07284C106.418 8.07265 105.999 8.09926 105.584 8.15249C105.191 8.20196 104.802 8.27847 104.419 8.38149C104.064 8.47774 103.716 8.59409 103.374 8.72998L103.135 10.4226C103.467 10.3031 103.782 10.2036 104.081 10.1239C104.38 10.0442 104.668 9.97787 104.947 9.92477C105.22 9.87258 105.495 9.83601 105.773 9.81524C106.044 9.79533 106.313 9.78538 106.579 9.78538C106.985 9.77683 107.39 9.82373 107.783 9.92477C108.07 9.99648 108.334 10.1404 108.549 10.3429C108.741 10.5399 108.879 10.7835 108.947 11.0499C109.032 11.3783 109.072 11.7166 109.067 12.0558L109.064 12.5536L106.738 12.711C105.942 12.7333 105.158 12.9091 104.429 13.2287C103.883 13.4677 103.412 13.8495 103.066 14.3339C102.771 14.765 102.615 15.2755 102.618 15.7975C102.614 16.2873 102.734 16.7702 102.966 17.2014C103.21 17.6443 103.576 18.0074 104.021 18.2468C104.564 18.5294 105.171 18.6666 105.783 18.6451C106.356 18.6583 106.926 18.5637 107.464 18.3663C107.93 18.1842 108.356 17.9138 108.718 17.5698C108.856 17.4376 108.987 17.2984 109.11 17.1526C109.149 17.3588 109.222 17.5571 109.326 17.7394C109.503 18.0441 109.776 18.282 110.102 18.4164C110.462 18.5612 110.848 18.6323 111.236 18.6255C111.356 18.6255 111.472 18.6219 111.585 18.6152C111.696 18.6089 111.805 18.5922 111.913 18.5654C112.019 18.5389 112.115 18.5156 112.202 18.4957C112.28 18.4783 112.356 18.455 112.431 18.426L112.65 17.0919C112.54 17.1297 112.426 17.1565 112.311 17.1718C112.219 17.1841 112.126 17.1906 112.033 17.1914M108.718 16.2953C108.503 16.4661 108.269 16.6129 108.022 16.7334C107.776 16.8532 107.515 16.9403 107.246 16.9926C106.967 17.0462 106.684 17.0728 106.4 17.0719C106.075 17.0812 105.753 17.0201 105.454 16.8927C105.211 16.7874 105.006 16.6103 104.867 16.3853C104.729 16.1464 104.66 15.874 104.668 15.5984C104.649 15.2664 104.74 14.9374 104.927 14.6624C105.143 14.4094 105.437 14.2345 105.763 14.1646C106.271 14.045 106.793 13.9916 107.316 14.0056H109.058L109.049 15.9817C108.948 16.0956 108.837 16.2005 108.717 16.2953" fill="white"/>
<path d="M121.448 8.55639C121.428 8.54842 121.409 8.5388 121.389 8.53117C121.017 8.39072 120.634 8.28073 120.244 8.20227C119.789 8.11266 119.325 8.06941 118.861 8.07316C117.976 8.06636 117.107 8.30104 116.346 8.75193C115.585 9.20282 114.961 9.85284 114.542 10.632C114.052 11.5672 113.812 12.6131 113.845 13.6684C113.822 14.5796 114.003 15.4844 114.373 16.3172C114.696 17.0283 115.222 17.6276 115.885 18.0394C116.599 18.4595 117.416 18.67 118.244 18.6467C118.752 18.6496 119.258 18.5826 119.747 18.4476C120.235 18.3073 120.7 18.0995 121.13 17.8303C121.279 17.738 121.429 17.6351 121.577 17.5269L121.827 18.4476H123.479V3.43306L121.449 3.71184L121.448 8.55639ZM120.384 16.7454C119.93 16.924 119.448 17.0217 118.96 17.0341C118.392 17.0507 117.829 16.9166 117.328 16.6455C116.863 16.3703 116.499 15.9509 116.293 15.4507C116.035 14.8091 115.913 14.1208 115.935 13.4295C115.912 12.7212 116.048 12.0168 116.333 11.3681C116.576 10.8419 116.976 10.4038 117.478 10.1139C118.023 9.81644 118.638 9.66862 119.259 9.68547C119.579 9.68478 119.898 9.70807 120.214 9.75516C120.528 9.80377 120.838 9.87713 121.14 9.97454C121.237 10.0054 121.344 10.0466 121.448 10.0844V16.222C121.11 16.4282 120.754 16.6034 120.384 16.7454Z" fill="white"/>
<path d="M128.324 3.92094C128.118 3.79465 127.88 3.72909 127.638 3.73176C127.393 3.72987 127.152 3.79531 126.941 3.92094C126.734 4.04247 126.559 4.2135 126.434 4.41877C126.307 4.62538 126.242 4.8635 126.244 5.10577C126.244 5.34886 126.308 5.58766 126.431 5.79763C126.553 6.00761 126.729 6.1812 126.941 6.30056C127.154 6.4201 127.394 6.48189 127.638 6.47978C127.878 6.48265 128.116 6.42075 128.324 6.30056C128.529 6.18205 128.698 6.00994 128.812 5.80273C128.932 5.59001 128.993 5.34974 128.991 5.10577C128.994 4.86487 128.932 4.62764 128.812 4.41877C128.694 4.21452 128.526 4.04333 128.324 3.92094Z" fill="white"/>
<path d="M126.583 18.4479H128.613V8.09308L126.583 8.39178V18.4479Z" fill="white"/>
<path d="M140.715 10.5122C140.318 9.75071 139.705 9.12368 138.953 8.71006C138.112 8.2877 137.184 8.0694 136.244 8.07286C135.303 8.07632 134.377 8.30144 133.539 8.72997C132.77 9.16062 132.141 9.8035 131.728 10.5819C131.278 11.4552 131.056 12.4277 131.081 13.4096C131.056 14.3838 131.264 15.3499 131.688 16.2273C132.069 16.9931 132.677 17.6224 133.429 18.0294C134.239 18.454 135.143 18.6664 136.057 18.6467C137.014 18.6658 137.959 18.4396 138.804 17.9896C139.592 17.5592 140.239 16.9089 140.665 16.1178C141.127 15.2341 141.356 14.2472 141.331 13.2503C141.354 12.3007 141.142 11.3603 140.715 10.5122ZM138.833 15.381C138.61 15.8986 138.231 16.3337 137.749 16.6255C137.265 16.9028 136.715 17.0439 136.157 17.0338C135.61 17.0474 135.07 16.9021 134.604 16.6156C134.143 16.3089 133.783 15.8723 133.569 15.3611C133.299 14.7052 133.17 13.9993 133.192 13.2901C133.169 12.6 133.298 11.9131 133.571 11.2789C133.794 10.7802 134.166 10.3629 134.635 10.0841C135.138 9.80742 135.705 9.66993 136.278 9.6858C136.725 9.6747 137.17 9.75958 137.581 9.93472C137.942 10.0976 138.257 10.3473 138.497 10.6615C138.754 11.0031 138.94 11.3923 139.044 11.8066C139.169 12.2911 139.229 12.7899 139.224 13.2901C139.247 14.0069 139.114 14.7203 138.835 15.381" fill="white"/>
</svg>

<svg xmlns="http://www.w3.org/2000/svg" viewBox="0 0 142 23"><path fill="#fff" d="M0 18.333V4.335h4.593v13.998H0Zm10.843-11.77 2.641 11.77H8.457L5.303 4.335h2.82a2.655 2.655 0 0 1 1.764.64c.491.404.829.964.956 1.588Zm3.331 11.77V4.335h4.594v13.998h-4.594Zm8.063-8.675a2.779 2.779 0 0 1-2.425-1.39 2.735 2.735 0 0 1-.374-1.41 2.685 2.685 0 0 1 .375-1.4 2.813 2.813 0 0 1 3.824-1.005c.415.244.761.59 1.005 1.005.25.424.38.908.375 1.4.005.496-.125.983-.375 1.41a2.8 2.8 0 0 1-1.005 1.015c-.424.251-.908.38-1.4.375Zm3.49 8.675V4.335h4.594v13.998h-4.594Zm10.409-6.348c.013.013.111.174.296.483.184.308.424.703.72 1.183a373.133 373.133 0 0 1 1.862 3.056c.289.48.617 1.022.986 1.626h-5.047l-.858-1.39c-.256-.414-.529-.86-.817-1.34-.29-.48-.576-.946-.858-1.4a71.148 71.148 0 0 1-.73-1.193 20.758 20.758 0 0 0-.424-.69 2.041 2.041 0 0 1-.335-.986c.02-.338.129-.665.316-.947.078-.131.223-.364.433-.7a212.331 212.331 0 0 0 1.598-2.603l.817-1.35.858-1.4H40l-3.904 6.369c-.12.189-.189.407-.197.631.013.235.095.462.236.65h.001ZM54.002 11.837a3.77 3.77 0 0 0-.995-.727 7.807 7.807 0 0 0-1.205-.488 13.616 13.616 0 0 0-1.313-.339c-.346-.08-.668-.159-.966-.238a4.438 4.438 0 0 1-.796-.29 2.634 2.634 0 0 1-.607-.398 1.427 1.427 0 0 1-.388-.557 2.142 2.142 0 0 1-.13-.787c-.004-.277.04-.554.13-.816.081-.232.218-.44.398-.608.186-.17.398-.311.627-.418.262-.12.54-.2.826-.239a7.02 7.02 0 0 1 1.025-.07 9.12 9.12 0 0 1 1.871.2c.3.065.596.148.886.249.271.093.534.21.786.348l.279-1.752a4.946 4.946 0 0 0-.886-.358 11.686 11.686 0 0 0-.945-.24 9.43 9.43 0 0 0-.976-.149 10.26 10.26 0 0 0-1.015-.05 8.45 8.45 0 0 0-2.09.24c-.583.14-1.133.39-1.622.736A3.33 3.33 0 0 0 45.84 6.34a4.059 4.059 0 0 0-.368 1.793c-.011.478.066.954.228 1.403.143.377.364.72.648 1.006.28.28.602.516.955.697.373.193.763.353 1.164.479.418.132.846.245 1.284.338.358.08.69.163.995.249.284.078.56.181.826.309.229.107.44.248.627.418.178.167.317.37.408.597.106.273.157.564.15.857.005.31-.042.62-.14.915a2.13 2.13 0 0 1-.398.698 1.923 1.923 0 0 1-.637.477 3.234 3.234 0 0 1-.865.259 6.912 6.912 0 0 1-1.105.08c-.36-.001-.719-.025-1.075-.07-.372-.046-.744-.11-1.115-.19-.37-.079-.733-.175-1.085-.288a20.848 20.848 0 0 1-1.005-.349l.259 1.972c.34.127.685.236 1.035.328.318.084.64.15.965.2.312.046.624.082.936.109.312.026.627.04.946.04a9.776 9.776 0 0 0 2.12-.22 5.072 5.072 0 0 0 1.731-.716c.492-.326.89-.776 1.154-1.305.291-.625.431-1.311.409-2a4.488 4.488 0 0 0-.23-1.515 2.935 2.935 0 0 0-.656-1.074ZM65.915 17.193a.907.907 0 0 1-.777-.319 1.713 1.713 0 0 1-.219-1.055l.04-4.102a4.79 4.79 0 0 0-.159-1.274 3.126 3.126 0 0 0-.478-1.016 2.693 2.693 0 0 0-.826-.737 4.226 4.226 0 0 0-1.204-.458 7.078 7.078 0 0 0-1.573-.16c-.419 0-.838.027-1.254.08-.392.05-.782.126-1.164.23a9.697 9.697 0 0 0-1.045.348l-.239 1.693a11.686 11.686 0 0 1 1.812-.498c.273-.052.548-.089.826-.11.271-.02.54-.03.806-.03a4.46 4.46 0 0 1 1.204.14c.287.071.55.215.766.418.192.197.33.44.398.707.085.328.126.667.12 1.006l-.002.498-2.327.157a6.183 6.183 0 0 0-2.309.518 3.31 3.31 0 0 0-1.363 1.105c-.295.431-.45.941-.448 1.463-.004.49.116.973.348 1.404.244.443.61.806 1.055 1.046.543.282 1.15.42 1.762.398a4.579 4.579 0 0 0 1.681-.279 3.872 3.872 0 0 0 1.255-.796c.137-.132.268-.272.391-.417.039.206.112.404.216.586.177.305.45.543.776.677.36.145.746.216 1.134.21.12 0 .236-.004.349-.01.11-.007.22-.024.328-.05.106-.027.202-.05.289-.07.078-.018.154-.041.229-.07l.219-1.334c-.11.038-.224.065-.339.08a2.26 2.26 0 0 1-.278.02m-3.315-.897c-.215.171-.449.318-.696.438a3.15 3.15 0 0 1-.776.26 4.41 4.41 0 0 1-.846.079 2.244 2.244 0 0 1-.946-.18 1.299 1.299 0 0 1-.587-.507 1.49 1.49 0 0 1-.2-.787 1.51 1.51 0 0 1 .26-.936c.216-.253.51-.428.836-.497a6.073 6.073 0 0 1 1.553-.16h1.742l-.009 1.977a2.652 2.652 0 0 1-.331.313M63.864 3.333h-2.15l-1.691 3.565h1.552l2.29-3.564ZM82.176 8.491a3.463 3.463 0 0 0-1.772-.418 4.66 4.66 0 0 0-1.572.269 5.543 5.543 0 0 0-1.433.766 7.143 7.143 0 0 0-.707.598 2.496 2.496 0 0 0-1.025-1.195 3.507 3.507 0 0 0-1.791-.418c-.533 0-1.061.09-1.563.269a5.656 5.656 0 0 0-1.861 1.088V8.093l-2.03.298v10.057h2.03v-7.575c.24-.156.489-.297.746-.42.316-.15.646-.266.986-.349.312-.077.633-.117.955-.12.296-.008.59.042.866.15.228.096.43.247.587.438.173.222.292.48.348.757.078.356.115.72.11 1.085v6.034h2.03v-6.452a8.062 8.062 0 0 0-.076-1.139c.23-.151.468-.29.713-.414.31-.157.638-.277.975-.359.32-.078.647-.118.976-.12.292-.006.583.044.856.15.232.095.437.245.597.438.173.222.292.48.348.757.078.356.115.72.11 1.085v6.054h2.03v-6.472a5.789 5.789 0 0 0-.358-2.21 2.566 2.566 0 0 0-1.075-1.275ZM86.615 18.448h2.03V8.093l-2.03.299v10.056ZM88.356 3.92a1.288 1.288 0 0 0-.686-.188 1.34 1.34 0 0 0-.697.189 1.458 1.458 0 0 0-.507.498 1.288 1.288 0 0 0-.19.687 1.37 1.37 0 0 0 .697 1.195c.213.12.453.18.697.179.24.003.477-.06.686-.18.205-.118.374-.29.488-.497a1.4 1.4 0 0 0 .18-.697c.002-.241-.06-.478-.18-.687a1.408 1.408 0 0 0-.488-.498ZM100.607 8.222c-.372.1-.728.254-1.055.458a5.19 5.19 0 0 0-.935.747c-.048.047-.093.1-.14.149V8.093l-2.03.298v10.057h2.03v-7.524a5.163 5.163 0 0 1 1.085-.582c.206-.079.415-.148.627-.208a4.249 4.249 0 0 1 1.393-.15l.239-1.871a3.784 3.784 0 0 0-1.214.11ZM112.033 17.193a.911.911 0 0 1-.777-.319 1.72 1.72 0 0 1-.219-1.055l.04-4.102a4.766 4.766 0 0 0-.159-1.274 3.137 3.137 0 0 0-.478-1.016 2.68 2.68 0 0 0-.826-.737 4.222 4.222 0 0 0-1.204-.458 7.08 7.08 0 0 0-1.572-.16c-.42 0-.839.027-1.254.08-.393.05-.782.126-1.165.23a9.704 9.704 0 0 0-1.045.348l-.239 1.693a11.702 11.702 0 0 1 1.812-.498c.273-.052.548-.089.826-.11.271-.02.54-.03.806-.03.406-.008.811.039 1.204.14.287.071.551.215.766.418.192.197.33.44.398.707.085.328.125.667.12 1.006l-.003.498-2.326.157a6.182 6.182 0 0 0-2.309.518 3.302 3.302 0 0 0-1.363 1.105 2.565 2.565 0 0 0-.448 1.463c-.004.49.116.973.348 1.404.244.443.61.806 1.055 1.046.543.282 1.15.42 1.762.398a4.573 4.573 0 0 0 1.681-.279 3.86 3.86 0 0 0 1.254-.796 5.4 5.4 0 0 0 .392-.417c.039.206.112.404.216.586.177.305.45.543.776.677.36.145.746.216 1.134.21.12 0 .236-.004.349-.01.111-.007.22-.024.328-.05.106-.027.202-.05.289-.07.078-.018.154-.041.229-.07l.219-1.334c-.11.038-.224.065-.339.08a2.245 2.245 0 0 1-.278.02m-3.315-.897c-.215.171-.449.318-.696.438-.246.12-.507.207-.776.26-.279.053-.562.08-.846.079a2.247 2.247 0 0 1-.946-.18 1.295 1.295 0 0 1-.587-.507 1.487 1.487 0 0 1-.199-.787 1.511 1.511 0 0 1 .259-.936c.216-.253.51-.428.836-.497a6.068 6.068 0 0 1 1.553-.16h1.742l-.009 1.977a2.586 2.586 0 0 1-.332.313M121.448 8.556l-.059-.025a6.874 6.874 0 0 0-2.528-.458 4.86 4.86 0 0 0-4.319 2.559 6.13 6.13 0 0 0-.697 3.036 6.143 6.143 0 0 0 .528 2.65 3.95 3.95 0 0 0 1.512 1.721c.714.42 1.531.631 2.359.608a5.53 5.53 0 0 0 1.503-.2c.488-.14.953-.348 1.383-.617.149-.092.299-.195.447-.303l.25.92h1.652V3.434l-2.03.279-.001 4.844Zm-1.064 8.19a4.18 4.18 0 0 1-1.424.288 3.231 3.231 0 0 1-1.632-.389 2.492 2.492 0 0 1-1.035-1.194 4.992 4.992 0 0 1-.358-2.021 4.742 4.742 0 0 1 .398-2.062 2.808 2.808 0 0 1 1.145-1.254 3.52 3.52 0 0 1 1.781-.429 6.017 6.017 0 0 1 1.881.29c.097.03.204.072.308.11v6.137a6.547 6.547 0 0 1-1.064.523ZM128.324 3.92a1.286 1.286 0 0 0-.686-.188 1.342 1.342 0 0 0-.697.189 1.458 1.458 0 0 0-.507.498 1.29 1.29 0 0 0-.19.687 1.368 1.368 0 0 0 .697 1.195c.213.12.453.18.697.179.24.003.478-.06.686-.18.205-.118.374-.29.488-.497.12-.213.181-.453.179-.697a1.346 1.346 0 0 0-.179-.687 1.403 1.403 0 0 0-.488-.498ZM126.583 18.448h2.03V8.093l-2.03.299v10.056ZM140.715 10.512a4.353 4.353 0 0 0-1.762-1.802 5.987 5.987 0 0 0-5.414.02 4.587 4.587 0 0 0-1.811 1.852 5.848 5.848 0 0 0-.647 2.828c-.025.974.183 1.94.607 2.817a4.152 4.152 0 0 0 1.741 1.802c.81.425 1.714.637 2.628.618a5.604 5.604 0 0 0 2.747-.657 4.64 4.64 0 0 0 1.861-1.872c.462-.884.691-1.87.666-2.868a5.778 5.778 0 0 0-.616-2.738Zm-1.882 4.869a2.707 2.707 0 0 1-1.084 1.244 3.09 3.09 0 0 1-1.592.409 2.832 2.832 0 0 1-1.553-.418 2.81 2.81 0 0 1-1.035-1.255 5.032 5.032 0 0 1-.377-2.07 4.691 4.691 0 0 1 .379-2.012 2.648 2.648 0 0 1 1.064-1.195 3.224 3.224 0 0 1 1.643-.398c.447-.011.892.074 1.303.249.361.163.676.412.916.726a3.2 3.2 0 0 1 .547 1.146c.125.484.185.983.18 1.483.023.717-.11 1.43-.389 2.091"/></svg>
